www/assets/icons/settings_outline.svg

<svg width="24" height="24" viewBox="0 0 24 24" xmlns="http://www.w3.org/2000/svg" fill='currentColor'><path d="M19.4322 12.98C19.4722 12.66 19.5022 12.34 19.5022 12C19.5022 11.66 19.4722 11.34 19.4322 11.02L21.5422 9.37C21.7322 9.22 21.7822 8.95 21.6622 8.73L19.6622 5.27C19.5722 5.11 19.4022 5.02 19.2222 5.02C19.1622 5.02 19.1022 5.03 19.0522 5.05L16.5622 6.05C16.0422 5.65 15.4822 5.32 14.8722 5.07L14.4922 2.42C14.4622 2.18 14.2522 2 14.0022 2H10.0022C9.75222 2 9.54222 2.18 9.51222 2.42L9.13222 5.07C8.52222 5.32 7.96222 5.66 7.44222 6.05L4.95222 5.05C4.89222 5.03 4.83222 5.02 4.77222 5.02C4.60222 5.02 4.43222 5.11 4.34222 5.27L2.34222 8.73C2.21222 8.95 2.27222 9.22 2.46222 9.37L4.57222 11.02C4.53222 11.34 4.50222 11.67 4.50222 12C4.50222 12.33 4.53222 12.66 4.57222 12.98L2.46222 14.63C2.27222 14.78 2.22222 15.05 2.34222 15.27L4.34222 18.73C4.43222 18.89 4.60222 18.98 4.78222 18.98C4.84222 18.98 4.90222 18.97 4.95222 18.95L7.44222 17.95C7.96222 18.35 8.52222 18.68 9.13222 18.93L9.51222 21.58C9.54222 21.82 9.75222 22 10.0022 22H14.0022C14.2522 22 14.4622 21.82 14.4922 21.58L14.8722 18.93C15.4822 18.68 16.0422 18.34 16.5622 17.95L19.0522 18.95C19.1122 18.97 19.1722 18.98 19.2322 18.98C19.4022 18.98 19.5722 18.89 19.6622 18.73L21.6622 15.27C21.7822 15.05 21.7322 14.78 21.5422 14.63L19.4322 12.98ZM17.4522 11.27C17.4922 11.58 17.5022 11.79 17.5022 12C17.5022 12.21 17.4822 12.43 17.4522 12.73L17.3122 13.86L18.2022 14.56L19.2822 15.4L18.5822 16.61L17.3122 16.1L16.2722 15.68L15.3722 16.36C14.9422 16.68 14.5322 16.92 14.1222 17.09L13.0622 17.52L12.9022 18.65L12.7022 20H11.3022L10.9522 17.52L9.89222 17.09C9.46222 16.91 9.06222 16.68 8.66222 16.38L7.75222 15.68L6.69222 16.11L5.42222 16.62L4.72222 15.41L5.80222 14.57L6.69222 13.87L6.55222 12.74C6.52222 12.43 6.50222 12.2 6.50222 12C6.50222 11.8 6.52222 11.57 6.55222 11.27L6.69222 10.14L5.80222 9.44L4.72222 8.6L5.42222 7.39L6.69222 7.9L7.73222 8.32L8.63222 7.64C9.06222 7.32 9.47222 7.08 9.88222 6.91L10.9422 6.48L11.1022 5.35L11.3022 4H12.6922L13.0422 6.48L14.1022 6.91C14.5322 7.09 14.9322 7.32 15.3322 7.62L16.2422 8.32L17.3022 7.89L18.5722 7.38L19.2722 8.59L18.2022 9.44L17.3122 10.14L17.4522 11.27ZM12.0022 8C9.79222 8 8.00222 9.79 8.00222 12C8.00222 14.21 9.79222 16 12.0022 16C14.2122 16 16.0022 14.21 16.0022 12C16.0022 9.79 14.2122 8 12.0022 8ZM12.0022 14C10.9022 14 10.0022 13.1 10.0022 12C10.0022 10.9 10.9022 10 12.0022 10C13.1022 10 14.0022 10.9 14.0022 12C14.0022 13.1 13.1022 14 12.0022 14Z"/></svg>

<svg xmlns="http://www.w3.org/2000/svg" width="24" height="24" viewBox="0 0 24 24" fill='currentColor'><path d="M19.432 12.98c.04-.32.07-.64.07-.98s-.03-.66-.07-.98l2.11-1.65c.19-.15.24-.42.12-.64l-2-3.46a.5.5 0 0 0-.61-.22l-2.49 1c-.52-.4-1.08-.73-1.69-.98l-.38-2.65a.49.49 0 0 0-.49-.42h-4c-.25 0-.46.18-.49.42l-.38 2.65c-.61.25-1.17.59-1.69.98l-2.49-1a.6.6 0 0 0-.18-.03c-.17 0-.34.09-.43.25l-2 3.46c-.13.22-.07.49.12.64l2.11 1.65c-.04.32-.07.65-.07.98s.03.66.07.98l-2.11 1.65c-.19.15-.24.42-.12.64l2 3.46a.5.5 0 0 0 .61.22l2.49-1c.52.4 1.08.73 1.69.98l.38 2.65c.03.24.24.42.49.42h4c.25 0 .46-.18.49-.42l.38-2.65c.61-.25 1.17-.59 1.69-.98l2.49 1q.09.03.18.03c.17 0 .34-.09.43-.25l2-3.46c.12-.22.07-.49-.12-.64zm-1.98-1.71c.04.31.05.52.05.73s-.02.43-.05.73l-.14 1.13.89.7 1.08.84-.7 1.21-1.27-.51-1.04-.42-.9.68c-.43.32-.84.56-1.25.73l-1.06.43-.16 1.13-.2 1.35h-1.4l-.35-2.48-1.06-.43c-.43-.18-.83-.41-1.23-.71l-.91-.7-1.06.43-1.27.51-.7-1.21 1.08-.84.89-.7-.14-1.13c-.03-.31-.05-.54-.05-.74s.02-.43.05-.73l.14-1.13-.89-.7-1.08-.84.7-1.21 1.27.51 1.04.42.9-.68c.43-.32.84-.56 1.25-.73l1.06-.43.16-1.13.2-1.35h1.39l.35 2.48 1.06.43c.43.18.83.41 1.23.71l.91.7 1.06-.43 1.27-.51.7 1.21-1.07.85-.89.7zM12.002 8c-2.21 0-4 1.79-4 4s1.79 4 4 4 4-1.79 4-4-1.79-4-4-4m0 6c-1.1 0-2-.9-2-2s.9-2 2-2 2 .9 2 2-.9 2-2 2"/></svg>
